X:223
T:Munster Cloak
R:waltz 32
C:Trad arr. P J Headford
Z:P J Headford
M:3/4
L:1/8
Q:1/4=120
K:G
D2|:G2GA BG|A2AB cA|G2GA Bd|c2A2 F2|
G2GA BG|A2AB cA|d2de fd|c2A2 F2:|
|:g2ga ge|d2g2 a2|b2a2 g2|f2g2 a2|
b2a2 g2|f2de (3fed|dcAB (3cBA|A2GF G2:|]

